X:15173
T:Sean Ryans
R:Reel
S:
H:
N:
D:Maiden Voyage
Z:Adrian Scahill
M:4/4
L:1/8
K:G 
DEGA BGG2|AGBG AGEG|DEGA (3Bcd ed|gedB AGEG|\
DEGA BGG2|AGBG AGEG|(3Bcd ed Bdge|dBAB G4:||\
g2dB GA (3Bcd|egdB G3B|A2GB AEE2|cABG A2(3Bcd|\
g3a bgaf|gedB A2GE|DEGA (3Bcd ge|dBAB G4:||
